assets/svg/1f517.svg

<svg xmlns="http://www.w3.org/2000/svg" viewBox="0 0 64 64" enable-background="new 0 0 64 64"><g fill="#94989b"><path d="m36.15 41.525c1.19 1.191 1.305 3.03.247 4.087l-17.662 17.664c-1.055 1.055-2.896.943-4.087-.248l-13.674-13.674c-1.192-1.192-1.303-3.03-.248-4.087l17.664-17.663c1.057-1.057 2.896-.945 4.087.247 1.19 1.19 1.305 3.03.248 4.087l-13.824 13.825c-1.055 1.055-.945 2.895.247 4.087l5 5c1.192 1.192 3.03 1.302 4.087.247l13.824-13.823c1.056-1.058 2.895-.945 4.087.247"/><path d="m63.03 14.646c1.19 1.19 1.303 3.03.247 4.087l-17.663 17.663c-1.056 1.056-2.896.943-4.087-.247-1.192-1.192-1.305-3.03-.248-4.088l13.823-13.825c1.057-1.057.945-2.895-.247-4.087l-5-5c-1.192-1.191-3.03-1.304-4.088-.247l-13.823 13.824c-1.055 1.055-2.896.942-4.087-.248-1.192-1.191-1.303-3.03-.247-4.087l17.663-17.663c1.056-1.056 2.895-.945 4.087.247l13.673 13.674"/><path d="m44.48 19.521c1.192 1.192 1.303 3.03.246 4.085l-21.12 21.12c-1.055 1.055-2.893.946-4.085-.246-1.193-1.192-1.303-3.03-.247-4.087l21.12-21.12c1.057-1.058 2.895-.946 4.087.247"/></g></svg>

<svg xmlns="http://www.w3.org/2000/svg" width="64" height="64" viewBox="0 0 64 64"><path fill="#94989B" d="M36.148 41.525c1.19 1.191 1.305 3.03.247 4.087L18.733 63.276c-1.055 1.055-2.896.943-4.087-.248L.972 49.354C-.22 48.162-.331 46.323.724 45.267l17.664-17.663c1.057-1.057 2.896-.945 4.087.247 1.19 1.19 1.305 3.03.248 4.087L8.899 45.763c-1.055 1.055-.945 2.895.247 4.087l5.004 5.004c1.192 1.192 3.032 1.302 4.087.247l13.824-13.823c1.056-1.058 2.895-.945 4.087.247zM63.028 14.646c1.19 1.19 1.303 3.032.247 4.087L45.612 36.396c-1.056 1.056-2.896.943-4.087-.247-1.192-1.192-1.305-3.033-.248-4.088L55.1 18.236c1.057-1.057.945-2.895-.247-4.087L49.85 9.146c-1.192-1.191-3.03-1.304-4.088-.247L31.939 22.723c-1.055 1.055-2.896.942-4.087-.248-1.192-1.191-1.303-3.031-.247-4.087L45.268.725c1.056-1.056 2.895-.945 4.087.247l13.673 13.674z"/><path fill="#94989B" d="M44.48 19.521c1.192 1.192 1.303 3.028.246 4.085l-21.12 21.121c-1.055 1.055-2.893.946-4.085-.246-1.193-1.192-1.303-3.032-.247-4.087l21.119-21.12c1.057-1.058 2.895-.946 4.087.247z"/></svg>
